X: 59
T: Wuge fangyang
L: 1/16
M: 2/4
K: Eb
B2 B B2< e2 f [I:setbarnb 1]| 
e2> d2 c2 B2 | 
F4B2 B2 | 
e2 B cB4 | 
G2 F EB,4 | 
G2 G2 F2 G F | 
E2 F2B4 | 
e2 c e c2 B c | 
B4G2 F E | 
B,8 | 
B2 B2 e3 f | 
e2 c e c2 B c | 
B4G2 F E | 
B,8 | 
B2 B2 e3 f | 
e2 c e c2 B c | 
B4G2 F E | 
B,8 |]

@@@ Tune index: 8933
